X: 31478
T: Paddy The Caffler
R: polka
M: 2/4
K: Adorian
ab/a/ ge|ed A>d|ed A>e|dB G2|
ab/a/ ge|ed A>d|ed BG|A2 A2:|
e/f/g ab|d'2 d'b|ag ab|ag ed|
e/f/g ab|d'2 d'b|ag ab|a3d|
e/f/g ab|d'2 d'b|ag ab|ag ed|
ab/a/ ge|ed A>d|ed BG|A2 A2|

